img/technoD_logo.svg

<svg width="287" height="67" viewBox="0 0 287 67" fill="none" xmlns="http://www.w3.org/2000/svg">
<path d="M28.9419 32.9774H23.5518V39.9871H26.8177C27.6806 39.9871 28.4108 40.8102 28.9419 41.4209V32.9774ZM27.4018 16.502L38.5006 26.99C38.6696 27.1479 38.8041 27.3391 38.8955 27.5516C38.9869 27.7641 39.0333 27.9933 39.0316 28.2246V41.6732C39.0316 42.1286 38.8516 42.5656 38.5308 42.8889C38.21 43.2122 37.7744 43.3955 37.319 43.3991H21.8525C21.6282 43.4008 21.4058 43.3581 21.1981 43.2735C20.9904 43.1889 20.8015 43.064 20.6423 42.906C20.4831 42.7481 20.3567 42.5602 20.2705 42.3531C20.1843 42.1461 20.1399 41.924 20.1399 41.6997V31.2781C20.1399 31.0538 20.1843 30.8318 20.2705 30.6247C20.3567 30.4177 20.4831 30.2298 20.6423 30.0718C20.8015 29.9138 20.9904 29.7889 21.1981 29.7043C21.4058 29.6197 21.6282 29.577 21.8525 29.5788H30.6412C31.0919 29.5788 31.5241 29.7578 31.8428 30.0765C32.1615 30.3952 32.3405 30.8274 32.3405 31.2781V39.9871H35.6462V28.9548L26.2468 20.0599L16.8342 28.9415V46.8508H37.3456C37.5698 46.8491 37.7922 46.8917 37.9999 46.9763C38.2076 47.0609 38.3965 47.1858 38.5558 47.3438C38.715 47.5018 38.8413 47.6897 38.9275 47.8967C39.0138 48.1038 39.0582 48.3258 39.0582 48.5501V50.2494H15.1614C14.7107 50.2494 14.2785 50.0704 13.9598 49.7517C13.6411 49.433 13.4621 49.0008 13.4621 48.5501V28.2246C13.4587 27.9719 13.5118 27.7215 13.6174 27.4918C13.7231 27.2622 13.8786 27.059 14.0728 26.897L25.1051 16.4887C25.4185 16.1908 25.8344 16.0247 26.2668 16.0247C26.6991 16.0247 27.115 16.1908 27.4284 16.4887" fill="#1F1E21"/>
<path d="M258.444 49.8512H273.578V46.2268H265.785C265.248 46.213 264.71 46.2486 264.179 46.333C264.725 45.8605 265.219 45.3308 265.653 44.7532L273.339 35.1281V32.7517H258.736V36.3628H265.958C266.494 36.3715 267.031 36.3494 267.564 36.2964V36.3628C267.043 36.8526 266.56 37.3807 266.117 37.9426L258.404 47.5677L258.444 49.8512ZM242.061 49.8512H246.323V42.3768H248.527L253.067 49.8512H257.952L251.885 40.465V40.3987L257.289 32.7517H252.562L248.434 38.779H246.323V26.0341H242.061V49.8512ZM234.228 49.8512H238.49V45.563H234.228V49.8512ZM143.952 41.3014C143.952 40.6337 144.083 39.9725 144.339 39.3556C144.594 38.7387 144.969 38.1782 145.441 37.706C145.913 37.2339 146.474 36.8593 147.091 36.6038C147.708 36.3483 148.369 36.2167 149.036 36.2167C149.704 36.2167 150.365 36.3483 150.982 36.6038C151.599 36.8593 152.16 37.2339 152.632 37.706C153.104 38.1782 153.479 38.7387 153.734 39.3556C153.99 39.9725 154.121 40.6337 154.121 41.3014C154.121 41.9692 153.99 42.6304 153.734 43.2473C153.479 43.8642 153.104 44.4247 152.632 44.8969C152.16 45.369 151.599 45.7436 150.982 45.9991C150.365 46.2546 149.704 46.3861 149.036 46.3861C148.369 46.3861 147.708 46.2546 147.091 45.9991C146.474 45.7436 145.913 45.369 145.441 44.8969C144.969 44.4247 144.594 43.8642 144.339 43.2473C144.083 42.6304 143.952 41.9692 143.952 41.3014ZM139.624 41.3014C139.536 43.1812 140.015 45.0439 140.998 46.6486C141.981 48.2532 143.422 49.5259 145.137 50.302C146.851 51.078 148.759 51.3216 150.613 51.0012C152.467 50.6809 154.183 49.8114 155.537 48.5052C156.892 47.199 157.823 45.5162 158.211 43.6748C158.598 41.8334 158.424 39.918 157.711 38.1767C156.998 36.4353 155.778 34.9481 154.211 33.9075C152.643 32.8669 150.799 32.3209 148.917 32.3401C147.713 32.2955 146.511 32.4943 145.386 32.9246C144.26 33.3549 143.232 34.0079 142.365 34.8446C141.497 35.6812 140.807 36.6842 140.336 37.7937C139.865 38.9031 139.623 40.0962 139.624 41.3014ZM121.037 49.8512H125.299V41.8856C125.299 38.8055 127.211 36.2831 130.238 36.2831C132.375 36.2831 132.893 37.6904 132.893 39.7747V49.9043H137.154V38.8454C137.154 34.3183 134.977 32.3401 131.18 32.3401C129.93 32.3116 128.698 32.6366 127.624 33.2778C126.551 33.919 125.68 34.8503 125.113 35.9645C125.136 35.5621 125.136 35.1588 125.113 34.7564V32.7517H121.051L121.037 49.8512ZM101.429 49.8512H105.69V41.8856C105.69 38.633 107.642 36.2167 110.629 36.2167C112.767 36.2167 113.284 37.624 113.284 39.7083V49.8379H117.546V38.8454C117.546 34.3183 115.369 32.3401 111.572 32.3401C110.366 32.3453 109.183 32.673 108.147 33.2893C107.11 33.9056 106.258 34.788 105.677 35.845C105.741 35.3698 105.772 34.8907 105.77 34.4112V26.0341H101.442L101.429 49.8512ZM82.9487 41.3014C82.9247 42.5126 83.1514 43.7157 83.6145 44.8351C84.0776 45.9545 84.7672 46.9661 85.6398 47.8063C86.5125 48.6466 87.5494 49.2974 88.6855 49.7178C89.8217 50.1382 91.0325 50.3192 92.2419 50.2494C93.5398 50.2741 94.8297 50.0416 96.0373 49.5654C97.2449 49.0891 98.3464 48.3786 99.2781 47.4748L97.6452 44.4478C96.2961 45.7743 94.5038 46.5546 92.6136 46.6384C91.906 46.6551 91.2025 46.527 90.5462 46.2619C89.8899 45.9967 89.2948 45.6002 88.7975 45.0966C88.3001 44.593 87.911 43.993 87.654 43.3335C87.3971 42.674 87.2777 41.9689 87.3032 41.2616C87.2721 40.5661 87.3842 39.8716 87.6325 39.2212C87.8809 38.5708 88.2601 37.9783 88.7467 37.4804C89.2334 36.9825 89.8171 36.5899 90.4617 36.3269C91.1063 36.0638 91.7981 35.936 92.4941 35.9512C94.151 35.9838 95.7326 36.6488 96.915 37.8099L98.8268 34.8891C97.9487 34.0396 96.9082 33.3759 95.7676 32.9379C94.627 32.4999 93.4098 32.2966 92.1888 32.3401C90.9806 32.2802 89.7729 32.4684 88.6403 32.8932C87.5076 33.318 86.474 33.9704 85.6033 34.8101C84.7325 35.6497 84.043 36.6589 83.5773 37.7754C83.1116 38.8918 82.8796 40.0919 82.8956 41.3014M69.4869 39.1906C69.605 38.1828 70.0924 37.2545 70.855 36.5852C71.6175 35.9158 72.6011 35.5527 73.6157 35.5662C74.085 35.5575 74.551 35.6469 74.9838 35.8286C75.4166 36.0103 75.8067 36.2804 76.1291 36.6216C76.4515 36.9627 76.6992 37.3675 76.8562 37.8098C77.0132 38.2522 77.0761 38.7225 77.0409 39.1906H69.4869ZM65.0527 41.3014C65.0287 42.5126 65.2554 43.7157 65.7185 44.8351C66.1816 45.9545 66.8712 46.9661 67.7438 47.8063C68.6165 48.6466 69.6534 49.2974 70.7895 49.7178C71.9257 50.1382 73.1365 50.3192 74.3459 50.2494C76.83 50.2328 79.2335 49.366 81.1564 47.7934L79.4704 44.7399C78.0973 45.9037 76.3706 46.5682 74.5716 46.6251C73.2924 46.7015 72.035 46.268 71.0746 45.4196C70.1142 44.5711 69.529 43.3768 69.447 42.098H81.2228C81.2995 41.5523 81.3438 41.0026 81.3556 40.4518C81.3556 35.9247 78.7004 32.3269 73.775 32.3269C72.5979 32.2897 71.426 32.4984 70.3341 32.9396C69.2422 33.3808 68.2543 34.0449 67.4335 34.8894C66.6127 35.734 65.977 36.7404 65.5671 37.8444C65.1572 38.9485 64.982 40.1259 65.0527 41.3014ZM55.109 49.8512H59.3971V29.7646H67.2167V26.0341H47.3027V29.7646H55.1223L55.109 49.8512Z" fill="#CF6C48"/>
<path d="M204.623 49.8512H208.884V42.1777C208.884 39.3234 210.291 36.2301 213.279 36.2301C215.283 36.2301 215.589 37.8099 215.589 39.6553V49.8512H219.85V42.1777C219.85 39.1906 221.297 36.2301 224.205 36.2301C226.156 36.2301 226.555 37.7037 226.555 39.6553V49.8512H230.79V38.8455C230.79 34.3582 228.772 32.3402 225.187 32.3402C223.99 32.3668 222.82 32.7069 221.795 33.3266C220.77 33.9462 219.926 34.8237 219.346 35.8716H219.279C219.006 34.7892 218.356 33.8394 217.447 33.1923C216.537 32.5452 215.426 32.2432 214.314 32.3402C213.141 32.3878 212.003 32.7492 211.017 33.3867C210.032 34.0242 209.236 34.9144 208.712 35.9646H208.645C208.69 35.5634 208.712 35.1601 208.712 34.7565V32.7518H204.623V49.8512ZM187.563 41.3015C187.528 40.6128 187.633 39.9241 187.872 39.2774C188.112 38.6306 188.48 38.0393 188.955 37.5394C189.43 37.0395 190.002 36.6414 190.635 36.3694C191.269 36.0974 191.951 35.9571 192.641 35.9571C193.331 35.9571 194.013 36.0974 194.647 36.3694C195.28 36.6414 195.852 37.0395 196.327 37.5394C196.802 38.0393 197.171 38.6306 197.41 39.2774C197.649 39.9241 197.754 40.6128 197.719 41.3015C197.754 41.9902 197.649 42.6789 197.41 43.3256C197.171 43.9724 196.802 44.5637 196.327 45.0636C195.852 45.5636 195.28 45.9616 194.647 46.2336C194.013 46.5057 193.331 46.6459 192.641 46.6459C191.951 46.6459 191.269 46.5057 190.635 46.2336C190.002 45.9616 189.43 45.5636 188.955 45.0636C188.48 44.5637 188.112 43.9724 187.872 43.3256C187.633 42.6789 187.528 41.9902 187.563 41.3015ZM183.235 41.3015C183.147 43.1812 183.626 45.044 184.609 46.6486C185.592 48.2533 187.034 49.526 188.748 50.302C190.462 51.0781 192.37 51.3217 194.224 51.0013C196.079 50.681 197.794 49.8114 199.149 48.5052C200.503 47.199 201.435 45.5163 201.822 43.6749C202.21 41.8335 202.036 39.9181 201.322 38.1767C200.609 36.4354 199.39 34.9482 197.822 33.9076C196.254 32.867 194.41 32.321 192.528 32.3402C191.324 32.2956 190.123 32.4944 188.997 32.9247C187.871 33.355 186.844 34.008 185.976 34.8446C185.108 35.6813 184.418 36.6843 183.948 37.7937C183.477 38.9032 183.234 40.0962 183.235 41.3015ZM165.565 46.134V29.7647H169.123C173.889 29.7647 177.088 32.6058 177.088 37.9161C177.088 43.2265 173.995 46.134 169.123 46.134H165.565ZM161.237 49.8512H169.362C176.703 49.8512 181.509 45.4303 181.509 37.9029C181.509 30.3754 176.703 26.0209 169.362 26.0209H161.237V49.8512Z" fill="#1F1E21"/>
</svg>

<svg width="287" height="67" fill="none" xmlns="http://www.w3.org/2000/svg"><path d="M28.942 32.977h-5.39v7.01h3.266c.863 0 1.593.823 2.124 1.434v-8.444Zm-1.54-16.475L38.5 26.99a1.674 1.674 0 0 1 .53 1.235v13.448A1.726 1.726 0 0 1 37.32 43.4H21.852a1.7 1.7 0 0 1-1.712-1.7V31.28a1.7 1.7 0 0 1 1.712-1.7h8.79a1.7 1.7 0 0 1 1.698 1.7v8.708h3.306V28.955l-9.4-8.895-9.412 8.882V46.85h20.512a1.7 1.7 0 0 1 1.712 1.7v1.698H15.161a1.7 1.7 0 0 1-1.699-1.699V28.225a1.7 1.7 0 0 1 .61-1.328l11.033-10.408a1.686 1.686 0 0 1 2.323 0" fill="#1F1E21"/><path d="M258.444 49.851h15.134v-3.624h-7.793a8.796 8.796 0 0 0-1.606.106 10.16 10.16 0 0 0 1.474-1.58l7.686-9.625v-2.376h-14.603v3.61h7.222c.536.01 1.073-.013 1.606-.066v.067a14.423 14.423 0 0 0-1.447 1.58l-7.713 9.625.04 2.283Zm-16.383 0h4.262v-7.474h2.204l4.54 7.474h4.885l-6.067-9.386v-.066l5.404-7.647h-4.727l-4.128 6.027h-2.111V26.034h-4.262v23.817Zm-7.833 0h4.262v-4.288h-4.262v4.288Zm-90.276-8.55a5.076 5.076 0 0 1 1.489-3.595 5.084 5.084 0 1 1-1.489 3.595Zm-4.328 0a9.396 9.396 0 0 0 5.513 9.001 9.398 9.398 0 0 0 12.574-12.125 9.403 9.403 0 0 0-8.794-5.837 8.96 8.96 0 0 0-9.293 8.961Zm-18.587 8.55h4.262v-7.965c0-3.08 1.912-5.603 4.939-5.603 2.137 0 2.655 1.407 2.655 3.492v10.13h4.261v-11.06c0-4.527-2.177-6.505-5.974-6.505a6.64 6.64 0 0 0-6.067 3.624c.023-.402.023-.805 0-1.208v-2.004h-4.062l-.014 17.1Zm-19.608 0h4.261v-7.965c0-3.253 1.952-5.67 4.939-5.67 2.138 0 2.655 1.408 2.655 3.492v10.13h4.262V38.845c0-4.527-2.177-6.505-5.974-6.505a6.757 6.757 0 0 0-5.895 3.505c.064-.475.095-.954.093-1.434v-8.377h-4.328l-.013 23.817Zm-18.48-8.55a8.788 8.788 0 0 0 9.293 8.948 9.836 9.836 0 0 0 7.036-2.774l-1.633-3.027a7.66 7.66 0 0 1-5.031 2.19 5.193 5.193 0 0 1-5.31-5.376 5.084 5.084 0 0 1 5.19-5.31 6.492 6.492 0 0 1 4.421 1.858l1.912-2.92a9.083 9.083 0 0 0-6.638-2.55 8.856 8.856 0 0 0-9.293 8.961m-13.41-2.11a4.102 4.102 0 0 1 4.13-3.625 3.373 3.373 0 0 1 3.425 3.625h-7.554Zm-4.433 2.11a8.788 8.788 0 0 0 9.293 8.948 10.873 10.873 0 0 0 6.81-2.456L79.47 44.74a7.966 7.966 0 0 1-4.898 1.885 4.846 4.846 0 0 1-5.125-4.527h11.776c.076-.546.12-1.095.133-1.646 0-4.527-2.656-8.125-7.581-8.125a8.47 8.47 0 0 0-8.722 8.974Zm-9.944 8.55h4.288V29.765h7.82v-3.73H47.303v3.73h7.82l-.014 20.086Z" fill="#CF6C48"/><path d="M204.623 49.851h4.261v-7.673c0-2.855 1.407-5.948 4.395-5.948 2.004 0 2.31 1.58 2.31 3.425v10.196h4.261v-7.673c0-2.987 1.447-5.948 4.355-5.948 1.951 0 2.35 1.474 2.35 3.425v10.196h4.235V38.846c0-4.488-2.018-6.506-5.603-6.506a6.852 6.852 0 0 0-5.841 3.532h-.067a4.7 4.7 0 0 0-4.965-3.532 6.561 6.561 0 0 0-5.602 3.625h-.067c.045-.402.067-.805.067-1.209v-2.004h-4.089v17.1Zm-17.06-8.55a5.093 5.093 0 0 1 1.392-3.762 5.09 5.09 0 0 1 3.686-1.582 5.086 5.086 0 0 1 5.078 5.344 5.093 5.093 0 0 1-1.392 3.763 5.089 5.089 0 0 1-5.692 1.17 5.089 5.089 0 0 1-3.072-4.933Zm-4.328 0a9.395 9.395 0 0 0 5.513 9.001 9.397 9.397 0 0 0 13.074-6.627 9.397 9.397 0 0 0-9.294-11.335 8.962 8.962 0 0 0-9.293 8.962Zm-17.67 4.833v-16.37h3.558c4.766 0 7.965 2.842 7.965 8.152 0 5.31-3.093 8.218-7.965 8.218h-3.558Zm-4.328 3.717h8.125c7.341 0 12.147-4.42 12.147-11.948 0-7.528-4.806-11.882-12.147-11.882h-8.125v23.83Z" fill="#1F1E21"/></svg>
